X:1
T:The Star of Bethlehem
T:Andrew L. Skoog, 1921
T:The Star of Bethlehem
T:Public Domain
T:Public Domain
C:Andrew L. Skoog, 1921
Z:Public Domain
%%score ( 1 2 ) ( 3 4 )
L:1/8
M:3/4
K:Db
V:1 treble 
V:2 treble 
V:3 bass 
V:4 bass 
V:1
 D2 | [DF]2 [CE]2 D2 | [FA]4 [FA]2 | [GB]4 [Gd]2 | [FA]4 [DF]2 | [DF]2 [D=E]2 [DF]2 | %6
w: 1.~I|of that star|long a-|go That|light- ed|the wand- er-|
w: 2.~“A|un- to us|born”— O|joy! To|sin blight-|ed earth comes|
w: 3.~No|can ob- scure|kind- ly|star, Nor|bright- ness|of noon- day|
w: 4.~It|on the world|peace- ful|rays, And|greets ev-|ery mor- tal|
 [FA]3 [=E=G] [FA]2 | [FB]4 [DE]2 | [CE]4 [EG]2 | [DF]2 [DF]2 [EG]2 | [FA]4 [DF]2 | %11
w: ers’ path be-|low; In|faith I|look up, and|o’er me|
w: high heav’n’s En-|voy; Now|o- ver|my path that|dear mem-|
w: its glor- ies|mar; When|sha- dows|of death sur-|round me,|
w: with heav’n- ly|grace. To|Beth- le-|hem’s Babe I|hast- en|
 [DF]2 [EG]2 [FA]2 | [GB]4 [GB]2 | [Bd]2 ([Ac][ce]) ([Bd][GB]) | [FA]2 [Fd]2 (DE) | %15
w: I see That|star in|its beau- * ty *|still shin- ing *|
w: o- ry, A|star in|its beau- * ty *|is shin- ing *|
w: I’ll see That|star in|its beau- * ty *|still shin- ing *|
w: with thee, O|star, in|thy beau- * ty, *|still shin- ing *|
 [DF]2 [DF]2 [CE]2 | D4 ||"^Refrain" [FA]2 | [EA]2 (EG) (FE) | [FA]2 [Fd]2 [Fd]2 | (G3 B) (AG) | %21
w: for me. *||||||
w: for me. *||||||
w: for me. *||||||
w: for me. *||||||
 [Fd]4 [FA]2 | [GB]2 (=AB) ([Bd][GB]) | [FA]2 [DF]2 D2 | [DF]4 [DE]2 | [CE]4 [EG]2 | %26
w: |||||
w: |||||
w: |||||
w: |||||
 [DF]2 [DF]2 [EG]2 | [FA]4 [DF]2 | [DF]2 [EG]2 [FA]2 | [GB]4 [GB]2 | [Bd]2 ([Ac][ce]) ([Bd][GB]) | %31
w: |||||
w: |||||
w: |||||
w: |||||
 [FA]2 [Fd]2 (DE) | [DF]2 [DF]2 [CE]2 | D4 |] %34
w: |||
w: |||
w: |||
w: |||
V:2
 D2 | x4 D2 | x6 | x6 | x6 | x6 | x6 | x6 | x6 | x6 | x6 | x6 | x6 | x6 | x6 | x6 | D4 || x2 | %18
w: think|of|||||||||||||||||
w: Child|is|||||||||||||||||
w: clouds|that|||||||||||||||||
w: sheds|its|||||||||||||||||
 x2 A2 A2 | x6 | c4 c2 | x6 | x2 G2 x2 | x4 D2 | x6 | x6 | x6 | x6 | x6 | x6 | x6 | x6 | x6 | D4 |] %34
w: ||||||||||||||||
w: ||||||||||||||||
w: ||||||||||||||||
w: ||||||||||||||||
V:3
 [D,F,]2 | [D,A,]2 [D,G,]2 [D,F,]2 | [D,D]4 [D,D]2 | [G,D]4 [B,,D]2 | [D,D]4 [D,A,]2 | %5
w: ~|~ ~ ~|~ ~|~ ~|~ ~|
 [D,A,]2 [D,=G,]2 [D,A,]2 | [D,D]3 [D,D] [D,D]2 | [B,,D]4 [B,,=G,]2 | [A,,A,]4 [C,A,]2 | %9
w: ~ ~ ~|~ ~ ~|~ ~|~ ~|
 [D,A,]2 [D,A,]2 [D,D]2 | [D,D]4 [D,A,]2 | [D,A,]2 [D,D]2 [D,D]2 | [G,D]4 [G,D]2 | %13
w: ~ ~ ~|~ ~|~ ~ ~|~ ~|
 [G,D]2 [G,D]2 [G,D]2 | [D,D]2 [D,A,]2 ([F,A,][G,B,]) | A,2 A,2 [A,,G,]2 | [D,F,]4 || [D,D]2 | %18
w: ~ ~ ~|~ ~ ~ *|~ ~ ~|star|that|
 [A,C]2 (CE) (DC) | [D,D]2 [D,A,]2 [D,D]2 | (E3 G) (FE) | [D,D]4 [D,D]2 | [G,D]2 [G,D]2 [G,D]2 | %23
w: once shone * o- *|le- hem! Thy|beams * yet *|tals great|joy pro- claim.|
 [D,D]2 [D,A,]2 [D,F,]2 | [B,,=G,]4 [B,,G,]2 | [A,,A,]4 [A,,A,]2 | [D,A,]2 [D,A,]2 [D,D]2 | %27
w: The Lord to|a- dore,|I hast-|en with thee,|
 [D,D]4 [D,A,]2 | [D,A,]2 [D,D]2 [D,D]2 | [G,D]4 [G,D]2 | [G,D]2 [G,D]2 [G,D]2 | %31
w: O star|in thy beau-|ty still|shin- ing for|
 [D,D]2 [D,A,]2 ([F,A,][G,B,]) | A,2 A,2 [A,,G,]2 | [D,F,]4 |] %34
w: me. * * *|||
V:4
 x2 | x6 | x6 | x6 | x6 | x6 | x6 | x6 | x6 | x6 | x6 | x6 | x6 | x6 | x6 | A,2 A,2 x2 | x4 || x2 | %18
w: |||||||||||||||~ O|||
 x2 A,2 A,2 | x6 | A,4 A,2 | x6 | x6 | x6 | x6 | x6 | x6 | x6 | x6 | x6 | x6 | x6 | x6 | x4 |] %34
w: ver Beth-||to mor-||||||||||||||

